packages/bezier-icons/icons/minus-circle.svg

<svg width="24" height="24" viewBox="0 0 24 24" fill="none" xmlns="http://www.w3.org/2000/svg">
<path fill-rule="evenodd" clip-rule="evenodd" d="M4.0002 12.0001C4.0002 16.4111 7.5892 20.0001 12.0002 20.0001C16.4112 20.0001 20.0002 16.4111 20.0002 12.0001C20.0002 7.58912 16.4112 4.00012 12.0002 4.00012C7.5892 4.00012 4.0002 7.58912 4.0002 12.0001ZM2.0002 12.0001C2.0002 6.47712 6.4772 2.00012 12.0002 2.00012C17.5232 2.00012 22.0002 6.47712 22.0002 12.0001C22.0002 17.5231 17.5232 22.0001 12.0002 22.0001C6.4772 22.0001 2.0002 17.5231 2.0002 12.0001ZM8 11C7.44772 11 7 11.4477 7 12C7 12.5523 7.44772 13 8 13H16C16.5523 13 17 12.5523 17 12C17 11.4477 16.5523 11 16 11H8Z" fill="#313234"/>
</svg>

<svg xmlns="http://www.w3.org/2000/svg" width="24" height="24" fill="none" viewBox="0 0 24 24"><path fill="#313234" fill-rule="evenodd" d="M4 12c0 4.411 3.59 8 8 8s8-3.589 8-8-3.589-8-8-8-8 3.59-8 8m-2 0C2 6.477 6.477 2 12 2s10 4.477 10 10-4.477 10-10 10S2 17.523 2 12m6-1a1 1 0 1 0 0 2h8a1 1 0 1 0 0-2z" clip-rule="evenodd"/></svg>
